themes/element/img/logos/element-logo.svg

<?xml version="1.0" encoding="UTF-8" standalone="no"?>
<svg
   width="200"
   height="200"
   viewBox="0 0 200 200"
   fill="none"
   version="1.1"
   id="svg5"
   sodipodi:docname="logo-mark-primary.svg"
   inkscape:version="1.3.2 (091e20ef0f, 2023-11-25)"
   xmlns:inkscape="http://www.inkscape.org/namespaces/inkscape"
   xmlns:sodipodi="http://sodipodi.sourceforge.net/DTD/sodipodi-0.dtd"
   xmlns="http://www.w3.org/2000/svg"
   xmlns:svg="http://www.w3.org/2000/svg">
  <defs
     id="defs5" />
  <sodipodi:namedview
     id="namedview5"
     pagecolor="#ffffff"
     bordercolor="#000000"
     borderopacity="0.25"
     inkscape:showpageshadow="2"
     inkscape:pageopacity="0.0"
     inkscape:pagecheckerboard="0"
     inkscape:deskcolor="#d1d1d1"
     showgrid="false"
     inkscape:zoom="2.575"
     inkscape:cx="73.009709"
     inkscape:cy="105.04854"
     inkscape:window-width="1360"
     inkscape:window-height="712"
     inkscape:window-x="1920"
     inkscape:window-y="0"
     inkscape:window-maximized="1"
     inkscape:current-layer="layer2" />
  <path
     fill-rule="evenodd"
     clip-rule="evenodd"
     d="M100 200C155.228 200 200 155.228 200 100C200 44.7715 155.228 0 100 0C44.7715 0 0 44.7715 0 100C0 155.228 44.7715 200 100 200Z"
     fill="#0DBD8B"
     id="path1"
     style="fill:#bd3e0d;fill-opacity:1" />
  <g
     inkscape:groupmode="layer"
     id="layer2"
     inkscape:label="Layer 2">
    <path
       fill-rule="evenodd"
       clip-rule="evenodd"
       d="m 153.3901,81.5139 c 4.0449,0 7.3239,3.272 7.3239,7.308 0,27.3587 -22.2244,49.5371 -49.6397,49.5371 -4.0449,0 -7.3239,-3.2723 -7.3239,-7.3088 0,-4.0365 3.279,-7.3087 7.3239,-7.3087 19.3255,0 34.9918,-15.6338 34.9918,-34.9196 0,-4.036 3.2791,-7.308 7.324,-7.308 z"
       fill="#ffffff"
       id="path6"
       style="fill:#ab441c;fill-opacity:1" />
    <path
       fill-rule="evenodd"
       clip-rule="evenodd"
       d="m 118.3988,153.4053 c 0,4.0365 -3.279,7.3087 -7.3239,7.3087 -27.4152,0 -49.6402,-22.1783 -49.6402,-49.5366 0,-4.0365 3.28,-7.3087 7.324,-7.3087 4.045,0 7.324,3.2722 7.324,7.3087 0,19.2853 15.667,34.9192 34.9922,34.9192 4.0449,0 7.3239,3.2722 7.3239,7.3087 z"
       fill="#ffffff"
       id="path7"
       style="fill:#ab441c;fill-opacity:1" />
    <path
       fill-rule="evenodd"
       clip-rule="evenodd"
       d="m 46.6098,118.4862 c -4.045,0 -7.324,-3.2722 -7.324,-7.3087 0,-27.3586 22.224,-49.5366 49.639,-49.5366 4.045,0 7.324,3.272 7.324,7.309 0,4.036 -3.279,7.308 -7.324,7.308 -19.325,0 -34.991,15.634 -34.991,34.9196 0,4.0365 -3.279,7.3087 -7.324,7.3087 z"
       fill="#ffffff"
       id="path8"
       style="fill:#ab441c;fill-opacity:1" />
    <path
       fill-rule="evenodd"
       clip-rule="evenodd"
       d="m 81.7177,46.5949 c 0,-4.037 3.279,-7.309 7.324,-7.309 27.4148,0 49.6393,22.178 49.6393,49.537 0,4.036 -3.2791,7.308 -7.324,7.308 -4.0448,0 -7.3239,-3.272 -7.3239,-7.308 0,-19.286 -15.6663,-34.92 -34.9914,-34.92 -4.045,0 -7.324,-3.272 -7.324,-7.308 z"
       fill="#ffffff"
       id="path9"
       style="fill:#ab441c;fill-opacity:1" />
  </g>
  <g
     inkscape:groupmode="layer"
     id="layer1"
     inkscape:label="Layer 1">
    <path
       fill-rule="evenodd"
       clip-rule="evenodd"
       d="m 61.4347,153.4053 c 0,4.0365 3.279,7.3087 7.3239,7.3087 27.4152,0 49.6402,-22.1783 49.6402,-49.5366 0,-4.0365 -3.28,-7.3087 -7.324,-7.3087 -4.045,0 -7.324,3.2722 -7.324,7.3087 0,19.2853 -15.667,34.9192 -34.9922,34.9192 -4.0449,0 -7.3239,3.2722 -7.3239,7.3087 z"
       fill="#ffffff"
       id="path2" />
    <path
       fill-rule="evenodd"
       clip-rule="evenodd"
       d="m 46.6098,61.6409 c -4.045,0 -7.324,3.2722 -7.324,7.3087 0,27.3586 22.224,49.5366 49.639,49.5366 4.045,0 7.324,-3.272 7.324,-7.309 0,-4.036 -3.279,-7.308 -7.324,-7.308 -19.325,0 -34.991,-15.634 -34.991,-34.9196 0,-4.0365 -3.279,-7.3087 -7.324,-7.3087 z"
       fill="#ffffff"
       id="path3" />
    <path
       fill-rule="evenodd"
       clip-rule="evenodd"
       d="m 138.681,46.5949 c 0,-4.037 -3.279,-7.309 -7.324,-7.309 -27.4148,0 -49.6393,22.178 -49.6393,49.537 0,4.036 3.2791,7.308 7.324,7.308 4.0448,0 7.3239,-3.272 7.3239,-7.308 0,-19.286 15.6663,-34.92 34.9914,-34.92 4.045,0 7.324,-3.272 7.324,-7.308 z"
       fill="#ffffff"
       id="path4" />
    <path
       fill-rule="evenodd"
       clip-rule="evenodd"
       d="m 153.3901,138.359 c 4.0449,0 7.3239,-3.272 7.3239,-7.308 0,-27.3587 -22.2244,-49.5371 -49.6397,-49.5371 -4.0449,0 -7.3239,3.2723 -7.3239,7.3088 0,4.0365 3.279,7.3087 7.3239,7.3087 19.3255,0 34.9918,15.6338 34.9918,34.9196 0,4.036 3.2791,7.308 7.324,7.308 z"
       fill="#ffffff"
       id="path5" />
  </g>
</svg>

<svg width="200" height="200" viewBox="0 0 200 200" fill="none" xmlns="http://www.w3.org/2000/svg">
<path fill-rule="evenodd" clip-rule="evenodd" d="M100 200C155.228 200 200 155.228 200 100C200 44.7715 155.228 0 100 0C44.7715 0 0 44.7715 0 100C0 155.228 44.7715 200 100 200Z" fill="#0DBD8B"/>
<path fill-rule="evenodd" clip-rule="evenodd" d="M81.7169 46.5946C81.7169 42.5581 84.9959 39.2859 89.0408 39.2859C116.456 39.2859 138.681 61.4642 138.681 88.8225C138.681 92.859 135.401 96.1312 131.357 96.1312C127.312 96.1312 124.033 92.859 124.033 88.8225C124.033 69.5372 108.366 53.9033 89.0408 53.9033C84.9959 53.9033 81.7169 50.6311 81.7169 46.5946Z" fill="white"/>
<path fill-rule="evenodd" clip-rule="evenodd" d="M153.39 81.5137C157.435 81.5137 160.714 84.7859 160.714 88.8224C160.714 116.181 138.49 138.359 111.075 138.359C107.03 138.359 103.751 135.087 103.751 131.05C103.751 127.014 107.03 123.742 111.075 123.742C130.4 123.742 146.066 108.108 146.066 88.8224C146.066 84.7859 149.345 81.5137 153.39 81.5137Z" fill="white"/>
<path fill-rule="evenodd" clip-rule="evenodd" d="M118.398 153.405C118.398 157.442 115.119 160.714 111.074 160.714C83.6592 160.714 61.4347 138.536 61.4347 111.177C61.4347 107.141 64.7138 103.869 68.7587 103.869C72.8035 103.869 76.0826 107.141 76.0826 111.177C76.0826 130.463 91.7489 146.097 111.074 146.097C115.119 146.097 118.398 149.369 118.398 153.405Z" fill="white"/>
<path fill-rule="evenodd" clip-rule="evenodd" d="M46.6097 118.486C42.5648 118.486 39.2858 115.214 39.2858 111.178C39.2858 83.8193 61.5102 61.6409 88.9255 61.6409C92.9704 61.6409 96.2494 64.9132 96.2494 68.9497C96.2494 72.9862 92.9704 76.2584 88.9255 76.2584C69.6 76.2584 53.9337 91.8922 53.9337 111.178C53.9337 115.214 50.6546 118.486 46.6097 118.486Z" fill="white"/>
</svg>
